X: 22777
T: Langstrom's Pony
R: jig
M: 6/8
K: Amixolydian
fed cAA|eAA cBA|fed cAA|BGG Bcd|
fed cAA|eAA efg|f/g/af gfe|dBG Bcd:|
|:cee dff|cee ecA|cee d/e/ff|dBG Bcd|
cee dff|cee efg|f/g/af gfe|dBG Bcd:|

